X:229
T:Dieus soit en cheste maison
C:Adam de la Halle
R:Rondeau
O:XIIIe
M:3/4
L:1/8
Q:1/4=120
K:D 
%%continueall 1
%%maxshrink 0.7
V:1
%%MIDI program 73
f2g4 | fed cB2 | c2d2e2 | f2a4 | 
f2e4 | f2e dc2 | d2e2f2 | g3/2z4z/2 | 
d2e2f2 | g2g fg2 | a3/2z4z/2 | d2=c BA2 | 
B2=c BA2 | G2A4 | G3/2z4z/2 | f2f2e2 | 
d2d cd2 | e3/2z4z/2 | f2e2f2 | g2f2e2 | 
d2e2f2 | g3/2z4z/2 | d2e4 | fga4 | 
g2g fg2 | a3/2z4z/2 | bag fe2 | fed2c2 | 
d3/2z4z/2 | f2g4 | fed cB2 | c2d2e2 | 
f2a4 | f2e4 | f2e dc2 | d2e2f2 | g4 |]
V:2
%%MIDI program 46
B,2G,4 | B,CD2E2 | FED2C2 | D2E4 | 
D2C B,A,2 | B,2=C B,A,2 | G,2=C4 | D3/2z4z/2 | 
F2E2DC | D2D CD2 | E3/2z4z/2 | F2E2F2 | 
GFE2DC | D2E2F2 | G3/2z4z/2 | D2E2F2 | 
G2G FG2 | A3/2z4z/2 | F2E2DC | D2=C B,A,2 | 
G,2A,4 | G,3/2z4z/2 | G,2=C4 | =B,2A,4 | 
D2D CD2 | E3/2z4z/2 | F2G4 | FE/2>D/2E2F2 | 
G3/2z4z/2 | B,2G,4 | B,CD2E2 | FED2C2 | 
D2E4 | D2C B,A,2 | B,2=C B,A,2 | G,2=C4 | D4 |]
V:3 clef=treble
%%MIDI program 41
D2D2C2 | =B,A,G,4 | F,2G,4 | B,2A,4 | 
B,2C4 | D2E4 | D=C/2>B,/2A,4 | G,3/2z4z/2 | 
B,2=C B,A,2 | G,2B,4 | A,3/2z4z/2 | B,2=C4 | 
D2E4 | D2C4 | D3/2z4z/2 | =B,2B,2A,2 | 
G,2B,4 | A,3/2z4z/2 | B,2C4 | D2E4 | 
DC/2>B,/2C4 | D3/2z4z/2 | G2G4 | FED2=CB, | 
A,2B,2A,G, | A,3/2z4z/2 | B,2=C4 | =B,2A,4 | 
G,3/2z4z/2 | D2D2C2 | B,A,G,4 | F,2G,4 | 
B,2A,4 | B,2C4 | D2E4 | D=C/2>B,/2A,4 | G,4 |]




%%header "$P0	 $IR 	$P1"
%%footer $D - Éditions Galouvielle - 2009 - À usage librement privé dans le cadre familial

